!!!!SEGMENT: pl-lzu--m-15111--001-006_noskowski-zygmunt--spiewnik-dla-dzieci-op-34-6-zajaczek.krn
!!!cenid: 18xx:4703
!!!COM: Noskowski, Zygmunt
!!!COM-rismID: pe106604
!!!CDT: 1846/05/02-1909/07/23
!!!CNT: Polish
!!!GTL: Śpiewnik dla dzieci, op. 34
!!!OTL: 6. Zajączek
!!!OMV: 006
!!!PDT: 1890
!!!AGN: Secular; Song; Children
!!!YEC: Copyright 2022 Narodowy Instytut Fryderyka Chopina (https://polishscores.org)
!!!YEM: License CC-BY-4.0 (https://creativecommons.org/licenses/by/4.0)
!!!SMS-siglum: PL-LŹu
!!!SMS-shelfmark: M 15111
!!!SMS-variant:
!!!SMS-altvar:
!!!SMS-shelfwork: 001-006 G
!!!NIFC-rismSourceID: 1001234040
!!!NIFC-rismChildID: 1001234040
!!!NIFC-islandoraID: pl-lzu:5455
!!!URL-pdf-islandora: https://repozytorium.nifc.pl/islandora/object/pl-lzu%3A5455/datastream/PDF/view
!!!URL-scan: https://polish.musicsources.pl/pl/lokalizacje/galeria/druki-muzyczne/23228/12 @EN{Scan on Polish Music Sources Website} @PL{Skany w portalu Dziedzictwo Muzyki Polskiej w otwartym dostępie}
!!!IIIF:
!!!ONB-nifc:
!!!AIN: 1 piano 1 vox
!!!key: f
!!!OMD: Allegretto poco vivace.
**kern	**kern	**dynam	**kern	**text	**text	**text	**text	**text	**dynam
*part2	*part2	*part2	*part1	*part1	*part1	*part1	*part1	*part1	*part1
*staff3	*staff2	*staff2/3	*staff1	*staff1	*staff1	*staff1	*staff1	*staff1	*staff1
*I"[Piano]	*I"[Piano]	*	*I"[Voice]	*	*	*	*	*	*
*I'pf	*I'pf	*	*I'V	*	*	*	*	*	*
*Ipiano	*Ipiano	*	*Ivox	*	*	*	*	*	*
*ICklav	*ICklav	*	*ICvox	*	*	*	*	*	*
*IGacmp	*IGacmp	*	*IGsolo	*	*	*	*	*	*
*>[A,A,A,A,A]	*>[A,A,A,A,A]	*>[A,A,A,A,A]	*>[A,A,A,A,A]	*>[A,A,A,A,A]	*>[A,A,A,A,A]	*>[A,A,A,A,A]	*>[A,A,A,A,A]	*>[A,A,A,A,A]	*>[A,A,A,A,A]
*>A	*>A	*>A	*>A	*>A	*>A	*>A	*>A	*>A	*>A
*clefF4	*clefG2	*	*clefG2	*	*	*	*	*	*
*k[b-e-a-d-]	*k[b-e-a-d-]	*	*k[b-e-a-d-]	*	*	*	*	*	*
*f:	*f:	*	*f:	*	*	*	*	*	*
*M2/4	*M2/4	*	*M2/4	*	*	*	*	*	*
=1	=1	=1	=1	=1	=1	=1	=1	=1	=1
*	*	*	*	*v:1	*v:2	*v:3	*v:4	*v:5	*
*	*	*	*^	*	*	*	*	*	*
!	!LO:TX:a:i:rj:t=Trochę żywo i żwawo.	!	!	!	!	!	!	!	!	!
8.F\L	8.f/L	mf	8.f/	8.f\	Nasz	Nasz	Nasz	Źle	Je-	mf
!	!LO:TX:b:i:t=marcato	!	!	!	!	!	!	!	!	!
16F\Jk	16f/Jk	.	16f/	16f\	za-	za-	za-	za-	-szcze	.
8G'L 8En'\	8g'L 8en'/	.	8g 8en/	4ryy	-ją-	-ją-	-ją-	-ją-	mi	.
8A-'J 8F'\	8a-'J 8f'/	.	8a- 8f/	.	-czek	-czek	-czek	-czku	ten	.
*	*	*	*v	*v	*	*	*	*	*	*
=2	=2	=2	=2	=2	=2	=2	=2	=2	=2
8B-'L 8G'\	8b-'L 8g'/	.	8b- 8g/	w bo-	na	ca-	z to-	mi-	.
8A-' 8F'\	8a-'J 8f'/	.	8a- 8f/	-ru	bok	-ły	-bą	-ły	.
8G'J 8En'\	4g 4en/	.	4g 4en,/	spał,	szust,	drży,	źle,	świat,	.
!	!	!LO:DY:rj	!	!	!	!	!	!	!
8C 8CC^/	.	f	.	.	.	.	.	.	.
=3	=3	=3	=3	=3	=3	=3	=3	=3	=3
8F 8FF^/	8.a-L 8.f/	.	8.a- 8.f/	Aż	Skrę-	A	Do	Je-	.
8r	.	.	.	.	.	.	.	.	.
.	16a-Jk 16f/	.	16a- 16f/	tu	-cił	tu	po-	-szczem	.
8B-'L 8G'\	8b-'L 8g'\	.	8b- 8g/	z hu-	młyn-	w bo-	-grze-	so-	.
8c'J 8A-'\	8cc'J 8a-'\	.	8cc 8a-/	-kiem	-ka,	-ru	-bu	-bie	.
!!LO:LB:g=original
=4	=4	=4	=4	=4	=4	=4	=4	=4	=4
*	*'	*	*	*v:1	*v:2	*v:3	*v:4	*v:5	*
8d-L 8B-\	8dd-L 8b-'\	.	8dd- 8b-\	wy-	za-	go-	szy-	po-	.
8B-'J 8G'\	8b-'J 8g'\	.	8b- 8g/	-padł	-padł	-nią	-kuj	-żyć	.
4c 4A-\	4cc 4a-\	.	4cc 4a-,\	strzał!	w chrust!	psy.	się.	rad...	.
=5	=5	=5	=5	=5	=5	=5	=5	=5	=5
!	!	!	!	!	!	!	!	!	!LO:DY:rj
4E- 4EE-/	4ee- 4g 4e-\	sfz	4ee- 4g\	Pif!	Hej!	Ham!	Bim!	Myk!	f
4G 4GG/	4dd- 4b- 4e-/	sfz	4dd- 4b-\	paf!	ha!	ham!	bam!	smyk!	.
=6	=6	=6	=6	=6	=6	=6	=6	=6	=6
4A- 4AA-/	4cc 4a- 4e-/	sfz	4cc 4a-\	Pif!	Hej!	Ham!	Bim!	Myk!	.
4An 4AAn\	4ff 4ee- 4cc 4f\	.	4ff 4f\	paf!	ha!	ham!	bam!	smyk!	.
=7	=7	=7	=7	=7	=7	=7	=7	=7	=7
4B- 4BB-\	8.dd-L 8.b-\	mf	8.dd- 8.b-\	Aż	Skrę-	A	Do	I	.
.	16ccJk 16a-\	.	16cc 16a-\	tu	-cił	tu	po-	zgu-	.
4r	8b-'L 8g'/	.	8b- 8g/	z hu-	młyn-	w bo-	-grze-	-bi-	.
.	8cc'J 8a-'/	.	8cc 8a-/	-kiem	-ka,	-ru	-bu	-ły	.
=8	=8	=8	=8	=8	=8	=8	=8	=8	=8
*	*	*	*^	*	*	*	*	*	*
8r	(8b-L 8g/	.	8b- 8g/	4ryy	wy-	za-	go-	szy-	pie-	.
8B-'L 8C'\	16a-L 16f/	.	16a-LL 16f/	.	-padł	-padł	-nią	-kuj	-ski	.
.	16gJJ 16en/)	.	16gJJ 16en/	.	.	.	.	.	.	.
8A-'J 8F'\	8f/	.	8f/	8f\	strzał.	w chrust!	psy.	się!	ślad!	.
8r	8r	.	8r	8ryy	.	.	.	.	.	.
*	*	*	*v	*v	*	*	*	*	*	*
!!LO:LB:g=original
=9	=9	=9	=9	=9	=9	=9	=9	=9	=9
(32qqC/LLL	(32qqcc/LLL	ff	.	.	.	.	.	.	.
32qqD-/	32qqdd-/	.	.	.	.	.	.	.	.
32qqE-/JJJ	32qqee-/JJJ	.	.	.	.	.	.	.	.
8F\L)	8ff\L)	.	2r	.	.	.	.	.	.
!	!LO:TX:a:i:t=marcato	!	!	!	!	!	!	!	!
8BB-\J	8b-'\J	.	.	.	.	.	.	.	.
4E-^\	4ee-^\	.	.	.	.	.	.	.	.
=10	=10	=10	=10	=10	=10	=10	=10	=10	=10
(32qqAA-/LLL	(32qqa-/LLL	.	.	.	.	.	.	.	.
32qqBB-/	32qqb-/	.	.	.	.	.	.	.	.
32qqC/JJJ	32qqcc/JJJ	.	.	.	.	.	.	.	.
8D-/L)	8dd-\L)	.	2r	.	.	.	.	.	.
8GG'/J	8g'\J	.	.	.	.	.	.	.	.
4C^/	4cc^\	.	.	.	.	.	.	.	.
=11	=11	=11	=11	=11	=11	=11	=11	=11	=11
(32qqFF/LLL	(32qqf/LLL	.	.	.	.	.	.	.	.
32qqGG/	32qqg/	.	.	.	.	.	.	.	.
32qqAA-/JJJ	32qqa-/JJJ	.	.	.	.	.	.	.	.
8BB-/L)	8b-/L)	.	2r	.	.	.	.	.	.
(16AA-/L	(16a-/L	.	.	.	.	.	.	.	.
16GG/JJ	16g/JJ	.	.	.	.	.	.	.	.
8C'/L)	8cc'/L)	.	.	.	.	.	.	.	.
8CC'/J	8c'/J	.	.	.	.	.	.	.	.
=12	=12	=12	=12	=12	=12	=12	=12	=12	=12
8FF'/L	8f/L	.	2r	.	.	.	.	.	.
8CJ 8CC^/	8enJ 8B-^/	.	.	.	.	.	.	.	.
8C 8FF^/	8f 8A-^/	.	.	.	.	.	.	.	.
8r	8r	.	.	.	.	.	.	.	.
=:|!	=:|!	=:|!	=:|!	=:|!	=:|!	=:|!	=:|!	=:|!	=:|!
*-	*-	*-	*-	*-	*-	*-	*-	*-	*-
!!!system-decoration: p1{p2}
!!!RDF**kern: > = above
!!!RDF**kern: < = below
!!!ENC: Andrzej Gręziak
!!!END: 2025-03-04
!!!ENC: Marta Lawrence
!!!END: 2025-03-20
